public/img/old-svg/little-kid.svg

<svg width="13" height="14" viewBox="0 0 13 14" fill="none" xmlns="http://www.w3.org/2000/svg">
<g clip-path="url(#clip0)">
<path d="M4.33301 8.75C4.78174 8.75 5.14551 8.35825 5.14551 7.875C5.14551 7.39175 4.78174 7 4.33301 7C3.88428 7 3.52051 7.39175 3.52051 7.875C3.52051 8.35825 3.88428 8.75 4.33301 8.75Z" fill="#EC824A"/>
<path d="M12.0689 6.39541C12.1306 5.82141 12.1875 5.16749 12.1875 4.71774C12.1875 1.49366 8.69917 0.291992 6.5 0.291992C5.07325 0.291992 4.04354 1.11624 3.69742 1.43649C2.61408 1.50358 0.8125 2.24616 0.8125 4.71774C0.8125 5.17391 0.868833 5.82491 0.930042 6.39599C0.381333 6.63749 0 7.20916 0 7.87533C0 8.71766 0.608292 9.40308 1.37529 9.46724C2.10925 11.7615 4.12696 13.417 6.5 13.417C8.87304 13.417 10.8908 11.7621 11.6247 9.46724C12.3923 9.40308 13 8.71766 13 7.87533C13 7.20858 12.6187 6.63691 12.0689 6.39541ZM10.9281 8.94108C10.9281 8.94224 10.927 8.94283 10.927 8.94399V8.94574C10.3713 11.0195 8.59896 12.542 6.5 12.542C4.21146 12.542 2.31238 10.7319 1.95488 8.37057L2.49546 6.33416C2.97808 6.16908 4.05925 5.70183 4.53267 4.71541C5.26121 5.45683 6.89379 6.36683 10.5268 6.41524L11.0457 8.36766C11.0164 8.56249 10.978 8.75383 10.9281 8.94108Z" fill="#EC824A"/>
<path d="M8.66699 8.75C9.11572 8.75 9.47949 8.35825 9.47949 7.875C9.47949 7.39175 9.11572 7 8.66699 7C8.21826 7 7.85449 7.39175 7.85449 7.875C7.85449 8.35825 8.21826 8.75 8.66699 8.75Z" fill="#EC824A"/>
<path d="M7.57184 10.039C6.98088 10.6544 6.01888 10.6544 5.42792 10.039C5.26704 9.87272 5.00921 9.87622 4.85321 10.0506C4.69721 10.2245 4.70209 10.501 4.8635 10.6696C5.31471 11.1386 5.90729 11.3725 6.49988 11.3725C7.09246 11.3725 7.68504 11.1386 8.13625 10.6696C8.29767 10.5016 8.302 10.2245 8.14654 10.0506C7.99054 9.87622 7.73325 9.87272 7.57184 10.039Z" fill="#EC824A"/>
</g>
<defs>
<clipPath id="clip0">
<rect width="13" height="14" fill="white"/>
</clipPath>
</defs>
</svg>

<svg width="13" height="14" viewBox="0 0 13 14" fill="none" xmlns="http://www.w3.org/2000/svg"><g clip-path="url(#clip0)" fill="#EC824A"><path d="M4.333 8.75c.449 0 .813-.392.813-.875S4.782 7 4.333 7c-.449 0-.812.392-.812.875s.363.875.812.875z"/><path d="M12.069 6.395c.062-.574.118-1.228.118-1.677C12.188 1.494 8.7.292 6.5.292c-1.427 0-2.456.824-2.803 1.144-1.083.068-2.885.81-2.885 3.282 0 .456.057 1.107.118 1.678-.549.241-.93.813-.93 1.48 0 .842.608 1.527 1.375 1.591.734 2.294 2.752 3.95 5.125 3.95s4.39-1.655 5.125-3.95C12.392 9.403 13 8.717 13 7.875c0-.666-.381-1.238-.931-1.48zm-1.14 2.546l-.002.003v.002c-.556 2.074-2.328 3.596-4.427 3.596-2.289 0-4.188-1.81-4.545-4.171l.54-2.037c.483-.165 1.564-.632 2.038-1.619.728.742 2.36 1.652 5.994 1.7l.519 1.953c-.03.194-.068.386-.118.573z"/><path d="M8.667 8.75c.449 0 .812-.392.812-.875S9.116 7 8.667 7c-.449 0-.813.392-.813.875s.364.875.813.875zm-1.095 1.289a1.476 1.476 0 01-2.144 0 .387.387 0 00-.575.012.462.462 0 00.01.619 2.262 2.262 0 001.637.703c.592 0 1.185-.234 1.636-.703a.463.463 0 00.01-.62.387.387 0 00-.574-.011z"/></g><defs><clipPath id="clip0"><path fill="#fff" d="M0 0h13v14H0z"/></clipPath></defs></svg>
